X: 15595
T: Gneevgullia
R: reel
M: 4/4
K: Eminor
|E3F G2 EF|GBAG FD D2|EDEF G3B|dBAc BEED|
E3F GE3|GBAG FD D2|EDEF GFGB|dBAc BE3||
e3d (3B^cd ef|geag fd d2|e3d (3Bcd eg|f3d efgf|
e3d (3B^cd ef|geag fd d2|g3e f3e|dBAc BEED||

